icons/webstorm.svg

<svg xmlns="http://www.w3.org/2000/svg" viewBox="0 0 256 256">
  <defs>
    <linearGradient id="a" x1="98.802" x2="170.287" y1="4.931" y2="225.998" gradientTransform="scale(.9269 1.07886)" gradientUnits="userSpaceOnUse">
      <stop offset="28%" stop-color="#00CDD7"/>
      <stop offset="94%" stop-color="#2086D7"/>
    </linearGradient>
    <linearGradient id="b" x1="126.453" x2="252.837" y1="31.659" y2="177.398" gradientTransform="scale(.88681 1.12763)" gradientUnits="userSpaceOnUse">
      <stop offset="14%" stop-color="#FFF045"/>
      <stop offset="37%" stop-color="#00CDD7"/>
    </linearGradient>
    <linearGradient id="c" x1="7405.44" x2="7876.48" y1="-17693.952" y2="-18377.36" gradientTransform="scale(.8 1.25)" gradientUnits="userSpaceOnUse">
      <stop offset="28%" stop-color="#00CDD7"/>
      <stop offset="94%" stop-color="#2086D7"/>
    </linearGradient>
  </defs>
  <path fill="url(#a)" d="m64 .4 40.4 24 37.6-20 77.6 30L176 256 34.4 231.2 0 26.8z" style="fill:url(#a)"/>
  <path fill="url(#b)" d="M163.2 0 70.4 88.8l24.8 114.8L142 236l114-67.6-28-52.4 28-29.2-33.2-81.6z" style="fill:url(#b)"/>
  <path fill="url(#c)" d="M256 86.8 235.6 36l-30.8 38.4L228 116z" style="fill:url(#c)"/>
  <path d="M48 48h160v160H48z"/>
  <path fill="#fff" d="M63.2 178h60v10h-60zm78.4-52.4 8.4-10.4c6 4.8 12 8 19.6 8 6 0 9.6-2.4 9.6-6.4 0-3.6-2.4-5.6-13.2-8.4-13.2-3.6-21.6-7.2-21.6-20.4v-.4c0-12 9.6-20 22.8-20a39.16 39.16 0 0 1 24.4 8.4L184 87.2a30.48 30.48 0 0 0-16.8-6.4c-5.2 0-8.4 2.4-8.4 6 0 4.4 2.8 6 14 8.8 13.2 3.6 20.8 8.4 20.8 20 0 13.2-10 20.8-24 20.8a46.12 46.12 0 0 1-28-10.8zm-12.8-56.8-10 38.4-11.2-38.4H96.4l-11.2 38.4-10-38.4H59.6l19.2 66.4h12.4L102 96.8l10.8 38.4h12.4l19.2-66.4z"/>
</svg>

<?xml version="1.0" encoding="UTF-8" standalone="no"?>
<svg width="256px" height="256px" viewBox="0 0 256 256" version="1.1" xmlns="http://www.w3.org/2000/svg" xmlns:xlink="http://www.w3.org/1999/xlink" preserveAspectRatio="xMidYMid">
    <defs>
        <linearGradient x1="41.7030965%" y1="1.92488263%" x2="71.8761384%" y2="95.2347418%" id="linearGradient-1">
            <stop stop-color="#00CDD7" offset="28%"></stop>
            <stop stop-color="#2086D7" offset="94%"></stop>
        </linearGradient>
        <linearGradient x1="22.4892241%" y1="15.1271186%" x2="82.8771552%" y2="84.7627119%" id="linearGradient-2">
            <stop stop-color="#FFF045" offset="14%"></stop>
            <stop stop-color="#00CDD7" offset="37%"></stop>
        </linearGradient>
        <linearGradient x1="11171%" y1="-27691.7984%" x2="11907%" y2="-28759.6256%" id="linearGradient-3">
            <stop stop-color="#00CDD7" offset="28%"></stop>
            <stop stop-color="#2086D7" offset="94%"></stop>
        </linearGradient>
    </defs>
	<g>
		<polygon fill="url(#linearGradient-1)" points="34.4 231.2 0 26.8 64 0.4 104.4 24.4 142 4.4 219.6 34.4 176 256"></polygon>
		<polygon fill="url(#linearGradient-2)" points="256 86.8 222.8 5.2 163.2 0 70.4 88.8 95.2 203.6 142 236 256 168.4 228 116"></polygon>
		<polygon fill="url(#linearGradient-3)" points="204.8 74.4 228 116 256 86.8 235.6 36"></polygon>
		<rect fill="#000000" x="48" y="48" width="160" height="160"></rect>
		<path d="M63.2,178 L123.2,178 L123.2,188 L63.2,188 L63.2,178 Z M141.6,125.6 L150,115.2 C156,120 162,123.2 169.6,123.2 C175.6,123.2 179.2,120.8 179.2,116.8 C179.2,113.2 176.8,111.2 166,108.4 C152.8,104.8 144.4,101.2 144.4,88 L144.4,87.6 C144.4,75.6 154,67.6 167.2,67.6 C176.04879,67.5627811 184.649333,70.5236236 191.6,76 L184,87.2 C179.170815,83.4261245 173.316089,81.1957528 167.2,80.8 C162,80.8 158.8,83.2 158.8,86.8 C158.8,91.2 161.6,92.8 172.8,95.6 C186,99.2 193.6,104 193.6,115.6 C193.6,128.8 183.6,136.4 169.6,136.4 C159.323641,136.02223 149.468301,132.220884 141.6,125.6 Z M128.8,68.8 L118.8,107.2 L107.6,68.8 L96.4,68.8 L85.2,107.2 L75.2,68.8 L59.6,68.8 L78.8,135.2 L91.2,135.2 L102,96.8 L112.8,135.2 L125.2,135.2 L144.4,68.8 L128.8,68.8 Z" fill="#FFFFFF"></path>
	</g>
</svg>
